X: 4
T: "615" polska efter Gunnar Orre
T: \"Alvdalspolska
R: \"Alvdalspolska
Z: 2005 John Chambers <jc@trillian.mit.edu>
S: handwritten MS labelled "H-99"
M: 9/8
L: 1/8
K: Am
V: 1 bracket=2
|:e2 ^g2 b2 a3  | a2  gage f2g \
| f2e   d2e f2g | a2  fdfd e3  \
| e2 ^g2 b2 a3  | a2  gage f2g \
| f2   ed2f a2f | (2fe  e6    :|
|:B2   cBcd e2c | B2 A2 B2 c3  \
| B2   cBcd e2c | B2 A2 G2 E3  \
| B2   cBcd e2c | B2 A2 B2 c3  \
| B2   cBcd e2c | BGB   A6    :|
V: 2
|:A2  B2 d2 ^c3 | A2  BAB^c d3 \
| d2A   F2A d2e | f2  dBdB ^c3 \
| A2  B2 d2 ^c3 | A2  BAB^c d3 \
| d2A   F2A d2B | (2BA  A6    :|
|:^G2   AGAB c2A | ^G2 F2 G2 A3  \
| ^G2   AGAB c2A | ^G2 F2 E2 B,3 \
| ^G2   AGAB c2A | ^G2 F2 G2 A3  \
| ^G2   AGAB c2A | EB,2 [E6A,6] :|
